X:778
T:Cullen Bay
C:Ian Duncan
S:Sarah Northcott/Rebecca Knorr
Z:Nigel Gatherer
M:5/4
L:1/8
K:A
A>B   cA    Bc    A4 | c>d ec    de/f/ e4 | fa     ec    de/d/    c4 | A>B cA Bc A4 :|
ae    ec/e/ fe/c/ e4 | ae  ec/e/ fe/c/ B4 | ae     ec/e/ fe/c/    e4 | A>B cA Bc A4 :|
c>A   AB/c/ dc/B/ c4 | ec  cd/e/ de/f/ e4 | fa     ec    de/d/    c4 | A>B cA Bc A4 :|
ec/e/ ae    fe/c/ e4 | cA  AB/c/ ed/c/ B4 | ec/e/  fa    f/e/d/f/ e4 | A>B cA Bc A4 :|]
<end>
<start>
